X: 1
T: Pieds en L'Air
C: Trad
R: Air
M: 9/8
L: 1/8
K: G
W: (Very slow)
Z: ABC transcription by Verge Roller
r: 12
|: "G" Bcd "D" d2 d "Am" c2 A | "G" BAG "D" GAF "G" G3 :|
|: "Am" de=f e3 "D" cde | "G" dcB "D" BcA "G" B3 | "G" GAB "Am" c3 "D" ABc | "G" dcB "D" BcA "G" G3 :|
